Papirus-nordic/64x64/places/folder-nordic-gnome.svg

<svg xmlns="http://www.w3.org/2000/svg" width="64" height="64"><rect width="50" height="32" x="7" y="24" rx="2.5" ry="2.5" opacity=".2"/><path d="M7 44.5C7 45.885 8.115 47 9.5 47h45c1.385 0 2.5-1.115 2.5-2.5v-27c0-1.385-1.115-2.5-2.5-2.5H29v-2.5c0-1.385-1.115-2.5-2.5-2.5h-17A2.495 2.495 0 0 0 7 12.5" fill="#6c9b9a"/><rect width="50" height="32" x="7" y="22" rx="2.5" ry="2.5" opacity=".2"/><rect width="44" height="20" x="10" y="18" rx="2.5" ry="2.5" fill="#e4e4e4"/><rect width="50" height="32" x="7" y="23" rx="2.5" ry="2.5" fill="#82abaa"/><path d="M9.5 10A2.495 2.495 0 0 0 7 12.5v1C7 12.115 8.115 11 9.5 11h17c1.385 0 2.5 1.115 2.5 2.5v-1c0-1.385-1.115-2.5-2.5-2.5zM29 15v1h25.5c1.39 0 2.5 1.115 2.5 2.5v-1c0-1.385-1.11-2.5-2.5-2.5z" opacity=".1" fill="#fff"/><path d="M39.905 26c-5.078 0-6.03 7.717-3.173 7.717 2.856 0 8.252-7.717 3.173-7.717zm-7.822 1.187c-.08 0-.165.008-.256.017-2.879.363-1.866 5.234-.334 5.325 1.481.088 3.105-5.333.587-5.342zm-4.989 1.798a1.327 1.327 0 0 0-.588.111c-2.313.95-.351 4.871.944 4.608 1.175-.239 1.344-4.609-.356-4.719zm-3.775 3.206c-.201-.006-.419.064-.651.236-1.851 1.382.624 4.721 1.713 4.203.953-.453.345-4.388-1.063-4.439zm10.935 3.187c-4.011-.069-9.304 1.966-10.207 6.058C23.07 45.86 28.071 52 33.287 52c2.567 0 5.528-2.346 6.082-5.317.423-2.265-4.978-1.357-4.785.141.233 1.797-1.302 2.685-2.805 1.527-4.787-3.687 7.925-5.527 7.086-10.565-.261-1.568-2.207-2.366-4.613-2.408z" fill="#4e6766"/></svg>

<svg xmlns="http://www.w3.org/2000/svg" width="64" height="64" version="1.1">
 <rect style="opacity:0.2" width="50" height="32" x="7" y="24" rx="2.5" ry="2.5"/>
 <path style="fill:#6c9b9a" d="M 7,44.5 C 7,45.885 8.115,47 9.5,47 H 54.5 C 55.885,47 57,45.885 57,44.5 V 17.5 C 57,16.115 55.885,15 54.5,15 H 29 V 12.5 C 29,11.115 27.885,10 26.5,10 H 9.5 C 8.115,10 7,11.115 7,12.5"/>
 <rect style="opacity:0.2" width="50" height="32" x="7" y="22" rx="2.5" ry="2.5"/>
 <rect style="fill:#e4e4e4" width="44" height="20" x="10" y="18" rx="2.5" ry="2.5"/>
 <rect style="fill:#82abaa" width="50" height="32" x="7" y="23" rx="2.5" ry="2.5"/>
 <path style="opacity:0.1;fill:#ffffff" d="M 9.5,10 C 8.115,10 7,11.115 7,12.5 V 13.5 C 7,12.115 8.115,11 9.5,11 H 26.5 C 27.885,11 29,12.115 29,13.5 V 12.5 C 29,11.115 27.885,10 26.5,10 Z M 29,15 V 16 H 54.5 C 55.89,16 57,17.115 57,18.5 V 17.5 C 57,16.115 55.89,15 54.5,15 Z"/>
 <path style="fill:#4e6766" d="M 39.905,26 C 34.827,26 33.875,33.717 36.732,33.717 39.588,33.717 44.984,26 39.905,26 Z M 32.083,27.187 C 32.003,27.187 31.918,27.195 31.827,27.204 28.948,27.567 29.961,32.438 31.493,32.529 32.974,32.617 34.598,27.196 32.08,27.187 Z M 27.094,28.985 C 26.918,28.974 26.723,29.007 26.506,29.096 24.193,30.046 26.155,33.967 27.45,33.704 28.625,33.465 28.794,29.095 27.094,28.985 Z M 23.319,32.191 C 23.118,32.185 22.9,32.255 22.668,32.427 20.817,33.809 23.292,37.148 24.381,36.63 25.334,36.177 24.726,32.242 23.318,32.191 Z M 34.254,35.378 C 30.243,35.309 24.95,37.344 24.047,41.436 23.07,45.86 28.071,52 33.287,52 35.854,52 38.815,49.654 39.369,46.683 39.792,44.418 34.391,45.326 34.584,46.824 34.817,48.621 33.282,49.509 31.779,48.351 26.992,44.664 39.704,42.824 38.865,37.786 38.604,36.218 36.658,35.42 34.252,35.378 Z"/>
</svg>
